X: 24269
T: Lorraine's
R: waltz
M: 3/4
K: Adorian
E|A3 B c2|e3 d c2|Bg g2 e2|d3 G B2|A3 g f2|e3 d c2|B3 A G2|E6|
A3 B c2|e3 d c2|B3 A G2|E3 F G2|A2 gz zf|e3 f g2|e3 d B2|A6||
A6|A3 c B2|A3 G E2|G3 E D2|c4 A2|Bg g2 f2|e3 f g2|e3 f ge|
A4 B2|c3 A B2|A3 G E2|G3 A G2|E3 D c2|Bg gz ze|d3 G B2|A6||

